X: 1
T: Polska ur J E Schedin och A G Ahlins notbok, nr 16
O: Västmanland
B: http://www.smus.se/earkiv/fmk/browselarge.php?lang=sw&katalogid=Vs+2&bildnr=00009
R: Polska
Z: Nils L
M: 3/4
L: 1/8
K: G
GBdgfa | gfgdeB | c/d/c/B/ ceAc | B/c/B/A/ BdGB | 
GBdgfa | gfgdeB | c/d/c/B/ ceAc | A/G/F/E/ AG- Gz ::
A2 .A.B/.c/ .A.B/.c/ | B2 Bc/d/ Bc/d/ | c/d/c/B/ cafg | decABG | 
A2 .A.B/.c/ .A.B/.c/ | B2 Bc/d/ Bc/d/ | c/d/c/B/ cegB | d/c/B/c/ AG- G2 :|

